packages/foundations/assets/icons/functional/images/file/folder_28.svg

<svg width="28" height="28" viewBox="0 0 28 28" fill="none" xmlns="http://www.w3.org/2000/svg">
<g clip-path="url(#clip0_185_930)">
<path fill-rule="evenodd" clip-rule="evenodd" d="M22.7402 7.87509C24.0864 7.87509 25.3652 8.9444 25.3849 10.5001L25.3652 21.0001C25.3652 22.3981 24.274 23.6008 22.7402 23.6251H5.24017C3.8422 23.6251 2.61517 22.5078 2.61517 21.0001V7.00009C2.61517 5.60212 3.74437 4.37491 5.24017 4.37491H10.9277C11.1211 4.37491 11.378 4.45618 11.5464 4.63137L14.7908 7.87509H22.7402ZM4.36517 9.62509V21.0001C4.36517 21.4488 4.73125 21.8751 5.24017 21.8751H22.7402C23.1889 21.8751 23.6152 21.5168 23.6152 21.0001V10.5001C23.6152 10.0514 23.2593 9.63098 22.7402 9.63098L4.36517 9.62509ZM10.5645 6.12509H5.24017C4.79144 6.12509 4.36517 6.48455 4.36517 7.00009V7.87509H12.3145L10.5645 6.12509Z" fill="#1A1C1F"/>
</g>
<defs>
<clipPath id="clip0_185_930">
<rect width="28" height="28" fill="white"/>
</clipPath>
</defs>
</svg>

<svg xmlns="http://www.w3.org/2000/svg" width="28" height="28" fill="none"><g clip-path="url(#a)"><path fill="#1A1C1F" fill-rule="evenodd" d="M22.74 7.875c1.346 0 2.625 1.07 2.645 2.625l-.02 10.5c0 1.398-1.091 2.6-2.625 2.625H5.24A2.62 2.62 0 0 1 2.615 21V7c0-1.398 1.13-2.625 2.625-2.625h5.688c.193 0 .45.081.618.256l3.245 3.244zM4.365 9.625V21a.88.88 0 0 0 .875.875h17.5a.875.875 0 0 0 .875-.875V10.5a.87.87 0 0 0-.875-.869zm6.2-3.5H5.24A.876.876 0 0 0 4.365 7v.875h7.95z" clip-rule="evenodd"/></g><defs><clipPath id="a"><path fill="#fff" d="M0 0h28v28H0z"/></clipPath></defs></svg>
